app/img/logos-solana/light-explorer-logo.svg

<svg fill="none" height="22" viewBox="0 0 919 79" width="214" xmlns="http://www.w3.org/2000/svg" xmlns:xlink="http://www.w3.org/1999/xlink"><clipPath id="a"><path d="m29 18.5h349v42h-349z"/></clipPath><g clip-path="url(#a)"><g fill="#000"><path d="m131.908 35.3h-25.441v-8.4h32.027v-8.4h-32.085c-2.229 0-4.366.8789-5.941 2.4432-1.576 1.5644-2.4612 3.6861-2.4612 5.8985v8.5166c0 2.2124.8852 4.3341 2.4612 5.8985 1.575 1.5643 3.712 2.4432 5.941 2.4432h25.44v8.4h-33.237v8.4h33.296c2.228 0 4.365-.8789 5.941-2.4432 1.576-1.5644 2.461-3.6861 2.461-5.8985v-8.5166c0-2.2124-.885-4.3341-2.461-5.8985-1.576-1.5643-3.713-2.4432-5.941-2.4432z"/><path d="m181.173 18.5h-25.534c-1.103 0-2.196.2158-3.215.6351s-1.945 1.0338-2.724 1.8085c-.78.7746-1.398 1.6943-1.82 2.7063-.421 1.012-.638 2.0966-.637 3.1918v25.3166c-.001 1.0952.216 2.1798.637 3.1918.422 1.012 1.04 1.9317 1.82 2.7063.779.7747 1.705 1.3892 2.724 1.8085s2.112.6351 3.215.6351h25.534c2.229 0 4.366-.8789 5.941-2.4432 1.576-1.5644 2.461-3.6861 2.461-5.8985v-25.3166c0-2.2124-.885-4.3341-2.461-5.8985-1.575-1.5643-3.712-2.4432-5.941-2.4432zm-.059 33.6h-25.381v-25.2h25.381z"/><path d="m270.539 18.5h-24.9c-2.229 0-4.366.8789-5.941 2.4432-1.576 1.5644-2.461 3.6861-2.461 5.8985v33.6583h8.46v-13.8017h24.783v13.8017h8.461v-33.6583c0-1.0957-.216-2.1808-.638-3.1932s-1.041-1.9322-1.822-2.707c-.78-.7747-1.706-1.3892-2.726-1.8081s-2.113-.6342-3.216-.6334zm-.059 19.7983h-24.783v-11.3983h24.783z"/><path d="m369.598 18.5h-24.894c-1.105-.0023-2.199.2118-3.221.63-1.021.4181-1.949 1.0322-2.731 1.807-.782.7749-1.403 1.6952-1.826 2.7084s-.641 2.0994-.641 3.1963v33.6583h8.46v-13.8017h24.795v13.8017h8.46v-33.6583c0-2.2124-.885-4.3341-2.461-5.8985-1.575-1.5643-3.712-2.4432-5.941-2.4432zm-.058 19.7983h-24.777v-11.3983h24.777z"/><path d="m320.309 52.1h-3.384l-12.127-30.1c-.415-1.0328-1.132-1.9183-2.059-2.5422s-2.021-.9576-3.141-.9578h-7.532c-1.485 0-2.909.5857-3.959 1.6282-1.05 1.0426-1.64 2.4566-1.64 3.931v36.4408h8.46v-33.6h3.385l12.121 30.1c.413 1.0327 1.129 1.9185 2.055 2.5426.926.624 2.019.9576 3.138.9574h7.533c1.485 0 2.909-.5857 3.959-1.6282 1.05-1.0426 1.64-2.4566 1.64-3.931v-36.4408h-8.461z"/><path d="m205.533 18.5h-8.461v33.6583c0 2.2124.885 4.3341 2.461 5.8985 1.576 1.5643 3.713 2.4432 5.941 2.4432h25.441v-8.4h-25.382z"/></g><path clip-rule="evenodd" d="m37.954 50.525c.1502-.1615.3317-.2913.5336-.3815.202-.0902.4201-.139.6415-.1435h36.9212c.1562.0022.3084.0491.4384.1352s.2322.2076.2942.3499c.0621.1424.0814.2995.0557.4525-.0258.153-.0955.2953-.2008.4099l-7.8261 8.6275c-.1502.1615-.3317.2913-.5336.3815s-.4201.139-.6414.1435h-36.9447c-.1562-.0022-.3085-.0491-.4384-.1352-.13-.0861-.2322-.2076-.2943-.3499-.062-.1424-.0813-.2995-.0556-.4525s.0955-.2953.2008-.4099zm38.719-7.1517c.1054.1146.1751.257.2008.41.0258.153.0064.3101-.0556.4524-.0621.1424-.1643.2639-.2942.3499-.13.0861-.2823.133-.4385.1352l-36.9329.0292c-.2214-.0045-.4395-.0533-.6415-.1435-.2019-.0902-.3834-.22-.5336-.3815l-7.8848-8.5983c-.1053-.1146-.175-.257-.2008-.41-.0257-.153-.0064-.3101.0557-.4524.0621-.1424.1642-.2639.2942-.3499.13-.0861.2822-.133.4384-.1352l36.933-.0292c.2213.0045.4395.0533.6414.1435s.3834.22.5336.3815zm-38.719-24.3483c.1502-.1615.3317-.2913.5336-.3815.202-.0902.4201-.139.6415-.1435l36.9447.0292c.1562.0022.3084.0491.4384.1352.13.086.2321.2075.2942.3499.0621.1423.0814.2994.0557.4524-.0258.153-.0955.2954-.2008.41l-7.8496 8.5983c-.1502.1615-.3317.2913-.5336.3815s-.4201.139-.6414.1435h-36.9447c-.1562-.0022-.3085-.0491-.4384-.1352-.13-.0861-.2322-.2076-.2943-.3499-.062-.1424-.0813-.2995-.0556-.4525s.0955-.2953.2008-.4099z" fill="#14f195" fill-rule="evenodd"/></g><g fill="#898989"><path d="m431.075 50.0955v-2.3306h-11.321v-7.2946h10.443v-2.3306h-10.443v-6.9313h10.957v-2.3004h-13.711v21.1875z"/><path d="m441.249 50.0955 4.721-7.7183c.303-.4843.575-.908.848-1.3923l.847 1.3923 4.722 7.7183h3.239l-7.022-11.0175 6.416-10.17h-3.057l-4.025 6.5379c-.363.6053-.696 1.1804-1.029 1.695-.333-.5146-.697-1.1199-1.029-1.695l-3.996-6.5379h-3.178l6.447 10.17-7.022 11.0175z"/><path d="m466.525 50.0955v-9.1712h4.964c3.844 0 7.264-1.362 7.264-5.993 0-4.6612-3.572-6.0233-7.264-6.0233h-7.719v21.1875zm0-18.8871h4.933c3.239 0 4.48 1.4528 4.48 3.7229 0 2.2398-1.241 3.6927-4.48 3.6927h-4.933z"/><path d="m501.723 50.0955v-2.3306h-11.623v-18.8569h-2.754v21.1875z"/><path d="m516.957 50.5495c5.237 0 8.869-4.2072 8.869-11.0477 0-6.8406-3.602-11.078-8.869-11.078-5.266 0-8.899 4.2374-8.899 11.078 0 6.8405 3.663 11.0477 8.899 11.0477zm0-2.3004c-3.632 0-5.993-3.2689-5.993-8.7473 0-5.5088 2.391-8.7474 5.993-8.7474 3.572 0 5.963 3.2386 5.963 8.7474 0 5.4784-2.361 8.7473-5.963 8.7473z"/><path d="m537.399 50.0955v-9.262h4.722c3.148 0 4.449 1.0291 4.449 4.3889v4.8731h2.755v-5.6298c0-2.7847-1.453-4.5099-3.451-4.8429 1.907-.5751 3.905-2.4819 3.905-5.1455 0-3.5716-2.573-5.5693-6.629-5.5693h-8.505v21.1875zm0-18.8871h5.085c2.846 0 4.48 1.2107 4.48 3.6019 0 2.3911-1.634 3.6926-4.48 3.6926h-5.085z"/><path d="m573.221 50.0955v-2.3306h-11.321v-7.2946h10.443v-2.3306h-10.443v-6.9313h10.957v-2.3004h-13.711v21.1875z"/><path d="m584.969 50.0955v-9.262h4.721c3.148 0 4.45 1.0291 4.45 4.3889v4.8731h2.754v-5.6298c0-2.7847-1.453-4.5099-3.45-4.8429 1.906-.5751 3.904-2.4819 3.904-5.1455 0-3.5716-2.573-5.5693-6.629-5.5693h-8.505v21.1875zm0-18.8871h5.085c2.845 0 4.479 1.2107 4.479 3.6019 0 2.3911-1.634 3.6926-4.479 3.6926h-5.085z"/><path d="m632.522 54c-2.815-3.5716-4.843-7.5669-4.843-13.0151s2.028-9.383 4.843-12.9849h-2.543c-2.754 3.0268-4.933 7.2643-4.933 13.0151 0 5.7509 2.179 9.9581 4.933 12.9849z"/><path d="m649.746 50.0955c4.147 0 8.021-1.241 8.021-5.9628 0-2.6333-1.544-4.4493-4.056-5.2363 1.907-.6054 3.541-2.3609 3.541-4.6612 0-3.6624-2.754-5.3272-6.719-5.3272h-7.809v21.1875zm-4.238-18.8871h4.843c2.966 0 4.086 1.362 4.086 3.2386 0 2.149-1.543 3.39-4.298 3.39h-4.631zm0 8.9592h4.571c3.753 0 4.873 1.6345 4.873 3.8138 0 2.5122-1.453 3.7835-4.752 3.7835h-4.692z"/><path d="m680.971 50.0955v-2.3306h-11.32v-7.2946h10.442v-2.3306h-10.442v-6.9313h10.956v-2.3004h-13.711v21.1875z"/><path d="m697.985 50.0955v-18.8871h7.083v-2.3004h-16.95v2.3004h7.113v18.8871z"/><path d="m728.711 50.0955-7.657-21.1875h-3.39l-7.628 21.1875h2.845l2.18-6.2957h8.505l2.179 6.2957zm-10.079-16.617c.242-.7265.454-1.3621.666-2.0582l.696 2.0582 2.785 8.0209h-6.931z"/><path d="m736.741 28c2.815 3.5716 4.843 7.5367 4.843 13.0151 0 5.418-2.028 9.383-4.843 12.9849h2.543c2.754-3.0268 4.933-7.2643 4.933-13.0151 0-5.7812-2.179-9.9581-4.933-12.9849z"/></g></svg>

<svg width="919" height="79" viewBox="0 0 919 79" fill="none" xmlns="http://www.w3.org/2000/svg">
<g clip-path="url(#clip0)">
<path d="M131.908 35.3H106.467V26.9H138.494V18.5H106.409C104.18 18.5 102.043 19.3789 100.468 20.9432C98.892 22.5076 98.0068 24.6293 98.0068 26.8417V35.3583C98.0068 37.5707 98.892 39.6924 100.468 41.2568C102.043 42.8211 104.18 43.7 106.409 43.7H131.849V52.1H98.612V60.5H131.908C134.136 60.5 136.273 59.6211 137.849 58.0568C139.425 56.4924 140.31 54.3707 140.31 52.1583V43.6417C140.31 41.4293 139.425 39.3076 137.849 37.7432C136.273 36.1789 134.136 35.3 131.908 35.3V35.3Z" fill="black"/>
<path d="M181.173 18.5H155.639C154.536 18.5 153.443 18.7158 152.424 19.1351C151.405 19.5544 150.479 20.1689 149.7 20.9436C148.92 21.7182 148.302 22.6379 147.88 23.6499C147.459 24.6619 147.242 25.7465 147.243 26.8417V52.1583C147.242 53.2535 147.459 54.3381 147.88 55.3501C148.302 56.3621 148.92 57.2818 149.7 58.0564C150.479 58.8311 151.405 59.4456 152.424 59.8649C153.443 60.2842 154.536 60.5 155.639 60.5H181.173C183.402 60.5 185.539 59.6211 187.114 58.0568C188.69 56.4924 189.575 54.3707 189.575 52.1583V26.8417C189.575 24.6293 188.69 22.5076 187.114 20.9432C185.539 19.3789 183.402 18.5 181.173 18.5V18.5ZM181.114 52.1H155.733V26.9H181.114V52.1Z" fill="black"/>
<path d="M270.539 18.5H245.639C243.41 18.5 241.273 19.3789 239.698 20.9432C238.122 22.5076 237.237 24.6293 237.237 26.8417V60.5H245.697V46.6983H270.48V60.5H278.941V26.8417C278.941 25.746 278.725 24.6609 278.303 23.6485C277.881 22.6361 277.262 21.7163 276.481 20.9415C275.701 20.1668 274.775 19.5523 273.755 19.1334C272.735 18.7145 271.642 18.4992 270.539 18.5V18.5ZM270.48 38.2983H245.697V26.9H270.48V38.2983Z" fill="black"/>
<path d="M369.598 18.5H344.704C343.599 18.4977 342.505 18.7118 341.483 19.13C340.462 19.5481 339.534 20.1622 338.752 20.937C337.97 21.7119 337.349 22.6322 336.926 23.6454C336.503 24.6586 336.285 25.7448 336.285 26.8417V60.5H344.745V46.6983H369.54V60.5H378V26.8417C378 24.6293 377.115 22.5076 375.539 20.9432C373.964 19.3789 371.827 18.5 369.598 18.5V18.5ZM369.54 38.2983H344.763V26.9H369.54V38.2983Z" fill="black"/>
<path d="M320.309 52.1H316.925L304.798 22C304.383 20.9672 303.666 20.0817 302.739 19.4578C301.812 18.8339 300.718 18.5002 299.598 18.5H292.066C290.581 18.5 289.157 19.0857 288.107 20.1282C287.057 21.1708 286.467 22.5848 286.467 24.0592V60.5H294.927V26.9H298.312L310.433 57C310.846 58.0327 311.562 58.9185 312.488 59.5426C313.414 60.1666 314.507 60.5002 315.626 60.5H323.159C324.644 60.5 326.068 59.9143 327.118 58.8718C328.168 57.8292 328.758 56.4152 328.758 54.9408V18.5H320.297L320.309 52.1Z" fill="black"/>
<path d="M205.533 18.5H197.072V52.1583C197.072 54.3707 197.957 56.4924 199.533 58.0568C201.109 59.6211 203.246 60.5 205.474 60.5H230.915V52.1H205.533V18.5Z" fill="black"/>
<path fill-rule="evenodd" clip-rule="evenodd" d="M37.954 50.525C38.1042 50.3635 38.2857 50.2337 38.4876 50.1435C38.6896 50.0533 38.9077 50.0045 39.1291 50H76.0503C76.2065 50.0022 76.3587 50.0491 76.4887 50.1352C76.6187 50.2213 76.7209 50.3428 76.7829 50.4851C76.845 50.6275 76.8643 50.7846 76.8386 50.9376C76.8128 51.0906 76.7431 51.2329 76.6378 51.3475L68.8117 59.975C68.6615 60.1365 68.48 60.2663 68.2781 60.3565C68.0762 60.4467 67.858 60.4955 67.6367 60.5H30.692C30.5358 60.4978 30.3835 60.4509 30.2536 60.3648C30.1236 60.2787 30.0214 60.1572 29.9593 60.0149C29.8973 59.8725 29.878 59.7154 29.9037 59.5624C29.9294 59.4094 29.9992 59.2671 30.1045 59.1525L37.954 50.525ZM76.673 43.3733C76.7784 43.4879 76.8481 43.6303 76.8738 43.7833C76.8996 43.9363 76.8802 44.0934 76.8182 44.2357C76.7561 44.3781 76.6539 44.4996 76.524 44.5856C76.394 44.6717 76.2417 44.7186 76.0855 44.7208L39.1526 44.75C38.9312 44.7455 38.7131 44.6967 38.5111 44.6065C38.3092 44.5163 38.1277 44.3865 37.9775 44.225L30.0927 35.6267C29.9874 35.5121 29.9177 35.3697 29.8919 35.2167C29.8662 35.0637 29.8855 34.9066 29.9476 34.7643C30.0097 34.6219 30.1118 34.5004 30.2418 34.4144C30.3718 34.3283 30.524 34.2814 30.6802 34.2792L67.6132 34.25C67.8345 34.2545 68.0527 34.3033 68.2546 34.3935C68.4565 34.4837 68.638 34.6135 68.7882 34.775L76.673 43.3733ZM37.954 19.025C38.1042 18.8635 38.2857 18.7337 38.4876 18.6435C38.6896 18.5533 38.9077 18.5045 39.1291 18.5L76.0738 18.5292C76.23 18.5314 76.3822 18.5783 76.5122 18.6644C76.6422 18.7504 76.7443 18.8719 76.8064 19.0143C76.8685 19.1566 76.8878 19.3137 76.8621 19.4667C76.8363 19.6197 76.7666 19.7621 76.6613 19.8767L68.8117 28.475C68.6615 28.6365 68.48 28.7663 68.2781 28.8565C68.0762 28.9467 67.858 28.9955 67.6367 29H30.692C30.5358 28.9978 30.3835 28.9509 30.2536 28.8648C30.1236 28.7787 30.0214 28.6572 29.9593 28.5149C29.8973 28.3725 29.878 28.2154 29.9037 28.0624C29.9294 27.9094 29.9992 27.7671 30.1045 27.6525L37.954 19.025Z" fill="#14F195"/>
</g>
<path d="M431.075 50.0955V47.7649H419.754V40.4703H430.197V38.1397H419.754V31.2084H430.711V28.908H417V50.0955H431.075Z" fill="#898989"/>
<path d="M441.249 50.0955L445.97 42.3772C446.273 41.8929 446.545 41.4692 446.818 40.9849L447.665 42.3772L452.387 50.0955H455.626L448.604 39.078L455.02 28.908H451.963L447.938 35.4459C447.575 36.0512 447.242 36.6263 446.909 37.1409C446.576 36.6263 446.212 36.021 445.88 35.4459L441.884 28.908H438.706L445.153 39.078L438.131 50.0955H441.249Z" fill="#898989"/>
<path d="M466.525 50.0955V40.9243H471.489C475.333 40.9243 478.753 39.5623 478.753 34.9313C478.753 30.2701 475.181 28.908 471.489 28.908H463.77V50.0955H466.525ZM466.525 31.2084H471.458C474.697 31.2084 475.938 32.6612 475.938 34.9313C475.938 37.1711 474.697 38.624 471.458 38.624H466.525V31.2084Z" fill="#898989"/>
<path d="M501.723 50.0955V47.7649H490.1V28.908H487.346V50.0955H501.723Z" fill="#898989"/>
<path d="M516.957 50.5495C522.194 50.5495 525.826 46.3423 525.826 39.5018C525.826 32.6612 522.224 28.4238 516.957 28.4238C511.691 28.4238 508.058 32.6612 508.058 39.5018C508.058 46.3423 511.721 50.5495 516.957 50.5495ZM516.957 48.2491C513.325 48.2491 510.964 44.9802 510.964 39.5018C510.964 33.993 513.355 30.7544 516.957 30.7544C520.529 30.7544 522.92 33.993 522.92 39.5018C522.92 44.9802 520.559 48.2491 516.957 48.2491Z" fill="#898989"/>
<path d="M537.399 50.0955V40.8335H542.121C545.269 40.8335 546.57 41.8626 546.57 45.2224V50.0955H549.325V44.4657C549.325 41.681 547.872 39.9558 545.874 39.6228C547.781 39.0477 549.779 37.1409 549.779 34.4773C549.779 30.9057 547.206 28.908 543.15 28.908H534.645V50.0955H537.399ZM537.399 31.2084H542.484C545.33 31.2084 546.964 32.4191 546.964 34.8103C546.964 37.2014 545.33 38.5029 542.484 38.5029H537.399V31.2084Z" fill="#898989"/>
<path d="M573.221 50.0955V47.7649H561.9V40.4703H572.343V38.1397H561.9V31.2084H572.857V28.908H559.146V50.0955H573.221Z" fill="#898989"/>
<path d="M584.969 50.0955V40.8335H589.69C592.838 40.8335 594.14 41.8626 594.14 45.2224V50.0955H596.894V44.4657C596.894 41.681 595.441 39.9558 593.444 39.6228C595.35 39.0477 597.348 37.1409 597.348 34.4773C597.348 30.9057 594.775 28.908 590.719 28.908H582.214V50.0955H584.969ZM584.969 31.2084H590.054C592.899 31.2084 594.533 32.4191 594.533 34.8103C594.533 37.2014 592.899 38.5029 590.054 38.5029H584.969V31.2084Z" fill="#898989"/>
<path d="M632.522 54C629.707 50.4284 627.679 46.4331 627.679 40.9849C627.679 35.5367 629.707 31.6019 632.522 28H629.979C627.225 31.0268 625.046 35.2643 625.046 41.0151C625.046 46.766 627.225 50.9732 629.979 54H632.522Z" fill="#898989"/>
<path d="M649.746 50.0955C653.893 50.0955 657.767 48.8545 657.767 44.1327C657.767 41.4994 656.223 39.6834 653.711 38.8964C655.618 38.291 657.252 36.5355 657.252 34.2352C657.252 30.5728 654.498 28.908 650.533 28.908H642.724V50.0955H649.746ZM645.508 31.2084H650.351C653.317 31.2084 654.437 32.5704 654.437 34.447C654.437 36.596 652.894 37.837 650.139 37.837H645.508V31.2084ZM645.508 40.1676H650.079C653.832 40.1676 654.952 41.8021 654.952 43.9814C654.952 46.4936 653.499 47.7649 650.2 47.7649H645.508V40.1676Z" fill="#898989"/>
<path d="M680.971 50.0955V47.7649H669.651V40.4703H680.093V38.1397H669.651V31.2084H680.607V28.908H666.896V50.0955H680.971Z" fill="#898989"/>
<path d="M697.985 50.0955V31.2084H705.068V28.908H688.118V31.2084H695.231V50.0955H697.985Z" fill="#898989"/>
<path d="M728.711 50.0955L721.054 28.908H717.664L710.036 50.0955H712.881L715.061 43.7998H723.566L725.745 50.0955H728.711ZM718.632 33.4785C718.874 32.752 719.086 32.1164 719.298 31.4203L719.994 33.4785L722.779 41.4994H715.848L718.632 33.4785Z" fill="#898989"/>
<path d="M736.741 28C739.556 31.5716 741.584 35.5367 741.584 41.0151C741.584 46.4331 739.556 50.3981 736.741 54H739.284C742.038 50.9732 744.217 46.7357 744.217 40.9849C744.217 35.2037 742.038 31.0268 739.284 28H736.741Z" fill="#898989"/>
<defs>
<clipPath id="clip0">
<rect width="349" height="42" fill="white" transform="translate(29 18.5)"/>
</clipPath>
</defs>
</svg>
